X: 10717
T: Doyle's
R: polka
M: 2/4
K: Gmajor
"G" Bd G>A|Bd ed|Bd G>A|"C" BA "D" A2|"G" Bd G>A|Bd ed|
"C" e2 ed|"D" ef "G" g2:|"G" gd "C" ed|"G" gd "C" ed|"G" Bd G>A|"C" BA "D" A2|
"G" gd "C" ed|"G" gd "C" ed|"G" Bd "C" ef|"D" ag "G" g2:|

